!!!COM:	Josquin des Prez
!!!CDT:	~1450-1521/08/27
!!!OPR:	Missa Malheur me bat
!!!ONM:	1
!!!OTL:	Kyrie
!!!AGN:	Mass; Kyrie
!!!SCT:	NJE 9.1
!!!SCA:	New Josquin Edition 9.1
!!!voices: 4
!!!voices-OPR: 4(-6)
**kern	**kern	**kern	**kern
*staff4	*staff3	*staff2	*staff1
*Ivox	*Ivox	*Ivox	*Ivox
*I"Bassus	*I"Tenor	*I"Altus	*I"Superius
*I'B	*I'T	*I'A	*I'S
*>[A,B,C]	*>[A,B,C]	*>[A,B,C]	*>[A,B,C]
*>Kyrie1[A]	*>Kyrie1[A]	*>Kyrie1[A]	*>Kyrie1[A]
*>Christe[B]	*>Christe[B]	*>Christe[B]	*>Christe[B]
*>Kyrie2[C]	*>Kyrie2[C]	*>Kyrie2[C]	*>Kyrie2[C]
*clefF4	*clefGv2	*clefGv2	*clefG2
*k[]	*k[]	*k[]	*k[]
*>A	*>A	*>A	*>A
*M2/1	*M2/1	*M2/1	*M2/1
*met(C)	*met(C)	*met(C)	*met(C)
=1-	=1-	=1-	=1-
!!section: Kyrie I
!!!OMD: Kyrie I
!	!LO:TX:Z=6:t=T by Malcort	!	!
0r	0r	0e	0e
=2	=2	=2	=2
0r	0r	1e	1b
.	.	2.d\	1b
.	.	4c\	.
=3	=3	=3	=3
0r	0r	0A	1cc
.	.	.	1cc
=4	=4	=4	=4
0r	0r	2r	1b
.	.	1e	.
.	.	.	1g
.	.	2e\	.
=5	=5	=5	=5
0r	0r	2.d\	1a
.	.	4c\	.
.	.	1A	1a
=6	=6	=6	=6
0r	0r	2r	1g
.	.	1e	.
.	.	.	1e
.	.	2e\	.
=7	=7	=7	=7
0r	0r	2.d\	1f
.	.	4c\	.
.	.	1A	1f
=8	=8	=8	=8
0r	0r	2.c\	2.e/
.	.	4d\	4f/
.	.	2e\	2g/
.	.	[2A/	[2a/
=9	=9	=9	=9
0r	0r	4A/]	2a/]
.	.	4B\	.
.	.	2c\	2e/
.	.	2d\	2f/
.	.	2e\	2g/
=10	=10	=10	=10
0r	0r	2A/	2a/
.	.	1e	2e/
.	.	.	1f
.	.	2d\	.
=11	=11	=11	=11
0E	0E	0e	1e
.	.	.	2r
.	.	.	2e/
=12	=12	=12	=12
1E	1B	2r	1g
.	.	2B\	.
2.D\	1B	1d	2.f/
4C/	.	.	4g/
=13	=13	=13	=13
0AA	1c	2c\	1a
.	.	1.e	.
.	1c	.	2r
.	.	.	2e/
=14	=14	=14	=14
2r	1B	1E	0g
1E	.	.	.
.	1G	2r	.
2E\	.	2B\	.
=15	=15	=15	=15
2.D\	1A	1d	2.f/
4C/	.	.	4g/
1AA	1A	2.c\	2a/
.	.	.	2e/
.	.	4d\	.
=16	=16	=16	=16
2r	1G	1e	0g
1E	.	.	.
.	1E	2r	.
2E\	.	2B\	.
=17	=17	=17	=17
2.D\	1F	2d\	2.f/
.	.	2A/	.
4C/	.	.	4g/
2AA/	1F	2.c\	4a/
.	.	.	4b\
2AA/	.	.	[2cc\
.	.	4d\	.
=18	=18	=18	=18
2.C/	2.E/	2.e\	2cc\]
.	.	.	4b\
4D\	4F/	4d\	4a/
2E\	2G/	2B\	2g/
[2AA/	[2A/	2A/	[2c/
=19	=19	=19	=19
4AA/]	2A/]	1e	4c/]
4BB/	.	.	4d/
2C/	2E/	.	2e/
2D\	2F/	2r	2A/
2E\	2G/	2B\	[2e/
=20	=20	=20	=20
2AA/	2A/	2c\	4e/]
.	.	.	4f/
1E	2E/	4B\	2g/
.	.	2e\	.
.	1F	.	1a
.	.	4A/	.
2D\	.	2d\	.
=21	=21	=21	=21
[0El	[0El	2G/	[0gl
.	.	2c\	.
.	.	4B\	.
.	.	4G/	.
.	.	2c\	.
=22	=22	=22	=22
0E]	0E]	0Bl	0g]
!!LO:LB:i:g=z
=23||	=23||	=23||	=23||
*>B	*>B	*>B	*>B
!!section: Christe
!!!OMD: Christe
*M2/1	*M2/1	*M2/1	*M2/1
*met(C|)	*met(C|)	*met(C|)	*met(C|)
0r	0r	1r	1e
.	.	1e	[1g
=24	=24	=24	=24
0r	0r	1c	2g/]
.	.	.	2a/
.	.	2d\	1b
.	.	[2e\	.
=25	=25	=25	=25
0r	0r	2e\]	1e
.	.	2A/	.
.	.	1B	[1g
=26	=26	=26	=26
0r	0r	1c	2g/]
.	.	.	2a/
.	.	2B\	1b
.	.	[2G/	.
=27	=27	=27	=27
0r	0r	2G/]	1e
.	.	2A/	.
.	.	1B	2.g/
.	.	.	4a/
=28	=28	=28	=28
0r	0r	2E/	2b\
.	.	1e	2e/
.	.	.	2.g/
.	.	4d\	.
.	.	4c\	4a/
=29	=29	=29	=29
0r	0r	4d\	0b
.	.	4c\	.
.	.	4B\	.
.	.	4A/	.
.	.	2.G/	.
.	.	4A/	.
=30	=30	=30	=30
0r	0r	2B\	2r
.	.	2c\	2e/
.	.	2B\	2.g/
.	.	[2e\	.
.	.	.	4a/
=31	=31	=31	=31
0r	0r	4e\]	1b
.	.	4d\	.
.	.	2B\	.
.	.	1c	2r
.	.	.	2e/
=32	=32	=32	=32
0r	0r	2B\	2.g/
.	.	2.e\	.
.	.	.	4a/
.	.	.	4b\
.	.	4c\	4cc\
.	.	[2f\	[2dd\
=33	=33	=33	=33
0r	0r	4f\]	4dd\]
.	.	4e\	4cc\
.	.	2c\	1cc
.	.	1d	.
.	.	.	2b\
=34	=34	=34	=34
0r	0r	2r	2cc\
.	.	1c	2a/
.	.	.	1g
.	.	2B\	.
=35	=35	=35	=35
0r	0r	2c\	2r
.	.	1A	1cc
.	.	2G/	2b\
=36	=36	=36	=36
0r	0r	2A/	2cc\
.	.	2c\	2.a/
.	.	1B	.
.	.	.	4g/
.	.	.	[2dd\
=37	=37	=37	=37
0r	0r	2A/	4dd\]
.	.	.	4cc\
.	.	1e	1cc
.	.	2d\	2b\
=38	=38	=38	=38
0r	0r	2c\	2a/
.	.	1e	2g/
.	.	.	1f
.	.	2d\	.
=39	=39	=39	=39
0r	0r	1.e	2r
.	.	.	2e/
.	.	.	2.g/
.	.	4d\	.
.	.	4c\	4a/
=40	=40	=40	=40
0r	0r	2B\	2b\
.	.	2c\	2e/
.	.	2B\	2g/
.	.	[2G/	2e/
=41	=41	=41	=41
0r	0r	4G/]	2.g/
.	.	4A/	.
.	.	2B\	.
.	.	.	4a/
.	.	2E/	2b\
.	.	[2e\	[2cc\
=42	=42	=42	=42
1r	1r	2e\]	2cc\]
.	.	4d\	4b\
.	.	4c\	4a/
1E	1e	1B	4g#i/
.	.	.	4a/
.	.	.	4b\
.	.	.	4g#i/
=43	=43	=43	=43
1.F	1c	1.A	1a
.	2d\	.	1r
2E\	[2e\	2G/	.
=44	=44	=44	=44
1F	2e\]	2.c\	0r
.	2A/	.	.
.	.	4d\	.
1E	1B	[1e	.
=45	=45	=45	=45
0r	1c	1e]	2r
.	.	.	2e/
.	2B\	1E	2.g/
.	[2G/	.	.
.	.	.	4a/
=46	=46	=46	=46
0r	2G/]	1r	2b\
.	2A/	.	2e/
.	1B	1E	2.g/
.	.	.	4a/
=47	=47	=47	=47
2r	2E/	1G	1b
2E\	1e	.	.
2F\	.	2A/	1r
2E\	4d\	2G/	.
.	4c\	.	.
=48	=48	=48	=48
1F	4d\	1A	1r
.	4c\	.	.
.	4B\	.	.
.	4A/	.	.
1E	2.G/	1B	2r
.	.	.	2e/
.	4A/	.	.
=49	=49	=49	=49
0r	2B\	0E	2.g/
.	2c\	.	.
.	.	.	4a/
.	2B\	.	2b\
.	[2e\	.	[2cc\
=50	=50	=50	=50
0r	4e\]	0r	4cc\]
.	4d\	.	4b\
.	2B\	.	1b
.	1c	.	.
.	.	.	2a/
=51	=51	=51	=51
2r	2B\	2r	1b
2E\	2.e\	2B\	.
2C/	.	2c\	1r
.	4d\	.	.
2D\	2f\	[2B\	.
=52	=52	=52	=52
2.AA/	2e\	4B\]	0r
.	.	4A/	.
.	2c\	1A	.
4C/	.	.	.
1BB	1d	.	.
.	.	2G#i/	.
=53	=53	=53	=53
1AA	2r	1A	2r
.	1c	.	2e/
1r	.	1r	2c/
.	2B\	.	2d/
=54	=54	=54	=54
1r	2c\	1r	2.A/
.	1A	.	.
.	.	.	4c/
1E	.	2r	1B
.	2G#i/	2e\	.
=55	=55	=55	=55
2F\	2A/	2d\	1r
2.E\	2c\	2.e\	.
.	1B	.	1g
4D\	.	4f\	.
2E\	.	2g\	.
=56	=56	=56	=56
2F\	2A/	1c	2a/
2E\	1e	.	2g/
[1F	.	1r	[1a
.	2d\	.	.
=57	=57	=57	=57
2F\]	2c\	1r	2a/]
2E\	1e	.	2g/
1F	.	1A	1a
.	2d\	.	.
=58	=58	=58	=58
[0E	1.e	2B\	[0g
.	.	1c	.
.	4d\	4B\	.
.	4c\	4A/	.
=59	=59	=59	=59
0E]	2B\	2.G/	0g_
.	2c\	.	.
.	.	4A/	.
.	2B\	2B\	.
.	[2G/	2E/	.
=60	=60	=60	=60
1r	4G/]	2.G/	0g]
.	4A/	.	.
.	2B\	.	.
.	.	4A/	.
[1E	2E/	2B\	.
.	[2e\	2E/	.
=61	=61	=61	=61
1E]	2e\]	0e	1r
.	4d\	.	.
.	4c\	.	.
1E	1B	.	1g
=62	=62	=62	=62
2F\	2A/	1r	2a/
2E\	1c	.	2g/
1F	.	1A	1a
.	2d\	.	.
=63	=63	=63	=63
[0El	2.e\	2B\	[0gl
.	.	1G	.
.	4d\	.	.
.	2B\	.	.
.	[2c\	4F/	.
.	.	4E/	.
=64	=64	=64	=64
0E]	2c\]	0el	0g]
.	4B\	.	.
.	4A/	.	.
.	1Bl	.	.
!!LO:LB:i:g=z
=65||	=65||	=65||	=65||
*>C	*>C	*>C	*>C
!!section: Kyrie II
!!!OMD: Kyrie II
*M3/1	*M3/1	*M3/1	*M3/1
*met(O)	*met(O)	*met(O)	*met(O)
!! Changed 1b to 1r in Superious [2011/04/20]
1.E	1E	2.E/	1r
.	.	4F/	.
.	1E	2G/	2.e/
2AA/	.	2A/	.
.	.	.	4f/
1E	1E	2B\	2g/
.	.	2c\	2e/
=66	=66	=66	=66
1D	1F	2d\	1a
.	.	2A/	.
2r	1E	2c\	2.g/
1E	.	1B	.
.	.	.	4e/
.	2r	.	1e
2AA/	[2A/	2A/	.
=67	=67	=67	=67
1E	2A/]	2B\	2r
.	2G/	2c\	1g
1D	1A	1d	.
.	.	.	2f/
2r	1B	2r	2.g/
[2E\	.	[2G/	.
.	.	.	4e/
=68	=68	=68	=68
2E\]	1c	2G/]	1e
2AA/	.	2A/	.
1E	2B\	2B\	2r
.	2G/	2c\	1g
1D	1A	1d	.
.	.	.	2f/
=69	=69	=69	=69
2r	2G/	1B	2.g/
1E	1G	.	.
.	.	.	4e/
.	.	2G/	2e/
2AA/	2F/	2A/	2.a/
1E	1G	2B\	.
.	.	.	4g/
.	.	2c\	[2g/
=70	=70	=70	=70
1D	1A	1d	2g/]
.	.	.	2f#i/
2r	1G	1B	1.g
1E	.	.	.
.	2r	1c	.
2C/	[2c\	.	2e/
=71	=71	=71	=71
1F	2c\]	1A	1a
.	2d\	.	.
2E\	1e	2B\	2g/
1A	.	2A/	2.cc\
.	2e\	1c	.
.	.	.	4b\
2F\	[2f\	.	[2a/
=72	=72	=72	=72
1B-	2f\]	1d	2a/]
.	4e\	.	2g/
.	4d\	.	.
2r	1.c	2.e\	2a/
1A	.	.	1cc
.	.	4d\	.
.	.	2e\	.
2D\	[2d\	2f\	[2b\
=73	=73	=73	=73
1F	4d\]	1d	4b\]
.	4c\	.	4a/
.	2A/	.	1a
1E	1B	1e	.
.	.	.	2g#i/
1AA	[1c	2r	2a/
.	.	[2A/	2e/
=74	=74	=74	=74
2r	1c]	4A/]	1cc
.	.	4B\	.
2A\	.	2c\	.
2G\	1r	2d\	2b\
2F\	.	1f	2.dd\
1A	1c	.	.
.	.	.	4cc\
.	.	2e\	[2cc\
=75	=75	=75	=75
1G	1d	1g	2cc\]
.	.	.	2b\
1C	1e	2r	1cc
.	.	2c\	.
2r	2.c\	2e\	2r
2A\	.	2f\	2cc\
.	4d\	.	.
=76	=76	=76	=76
2G\	2e\	2g\	2b\
2F\	2.f\	2a\	2.dd\
1A	.	1f	.
.	4e\	.	4cc\
.	4d\	.	1cc
.	4c\	.	.
1G	1d	1g	.
.	.	.	2b\
=77	=77	=77	=77
2r	2c\	1e	2.cc\
2A\	1c	.	.
.	.	.	4b\
2F\	.	1r	4a/
.	.	.	4g/
2G\	2B\	.	1g
1A	1c	2r	.
.	.	2c\	2f#i/
=78	=78	=78	=78
1G	1r	2d\	2g/
.	.	2B\	2dd\
2r	1c	2c\	2.cc\
2A\	.	1A	.
.	.	.	4b\
2F\	2d\	.	4a/
.	.	.	4g/
2G\	[2e\	2B\	[2g/
=79	=79	=79	=79
1A	2e\]	1c	2g/]
.	4d\	.	2f#i/
.	4c\	.	.
2G\	2B\	2d\	1g
2E\	1c	2e\	.
1F	.	1A	2c/
.	4B\	.	2d/
.	4A/	.	.
=80	=80	=80	=80
2E\	2G/	2B\	2e/
2AA/	2A/	2c\	2.f/
2BB-/	2G/	2d\	.
.	.	.	4e/
2C/	2E/	2e\	1e
1D	1F	1A	.
.	.	.	2d/
=81	=81	=81	=81
2r	[0.El	1c	2e/
1AA	.	.	1cc
.	.	2A/	.
2GG/	.	2B\	2b\
1AA	.	1c	1a
=82	=82	=82	=82
0.El	0.E]	0.Bl	0.gl
==	==	==	==
*-	*-	*-	*-
!!!RDF**kern: l=long note in original notation
!!!RDF**kern: i=editorial accidental
!!!ONB1: Montanus 1549 includes Pleni contrafact with text 
!!!ONB2: "Ovid tam sollicitis vitam consumimus")
!!!ENC:	Jesse Rodin; Victoria Chang 2011/04/14
!!!END:	2011/04/14/
!!!EED:	Jesse Rodin
!!!EEV:	2011/04/19/
!!attribution-level: 1 (secure)
!!!ONB:	Translated from MusicXML and edited on 2011/04/19/ by Craig Sapp
!!muse2ps: T^@{OPR}^u^@{ONM}{. }@{OTL}^C^@{COM}\n@{SCT}^i2I100v85,90,85,100Q16
!!onb: changed 1b to 1r in Superious m65 [2011/04/20]
